public/assets/images/icons/grey/visibility-invisible/assessment.svg

<svg width="16" height="16" xmlns="http://www.w3.org/2000/svg" viewBox="0 0 16 16" shape-rendering="geometricPrecision" fill="#6e6e6e"><defs><mask id="a"><rect fill="#fff" width="100%" height="100%"/><path d="M12.997.858a4.809 4.809 0 0 0-4.253 2.563 4.81 4.81 0 0 0 8.506 0A4.812 4.812 0 0 0 12.997.858z" fill="#000"/></mask></defs><path d="M12.997 1.611a3.394 3.394 0 0 0-3.003 1.81 3.397 3.397 0 0 0 6.006 0 3.398 3.398 0 0 0-3.003-1.81zm-.001 3.396a1.587 1.587 0 1 1 0-3.174 1.587 1.587 0 0 1 0 3.174z" fill="#cb1800"/><g mask="url(#a)"><path d="M4.622 5.865H1.017V2.262h3.604v3.603h.001zM1.55 5.331h2.536V2.795H1.55v2.536zm3.072 4.472H1.017V6.199h3.604v3.604h.001zM1.55 9.268h2.536V6.73H1.55v2.538zm3.072 4.47H1.017v-3.604h3.604v3.604h.001zm-3.072-.534h2.536V10.67H1.55v2.534zM6.041 3.051h8.941v2.137H6.041zm0 3.892h8.941v2.135H6.041zm0 3.912h8.941v2.136H6.041z"/><path d="M5.248 6.887l-.627-.629-1.523 1.521-.797-.795-.626.625 1.424 1.425z"/></g></svg>

<svg width="16" height="16" xmlns="http://www.w3.org/2000/svg" viewBox="0 0 16 16" shape-rendering="geometricPrecision" fill="#6e6e6e"><defs><mask id="a"><rect fill="#fff" width="100%" height="100%"/><path d="M12.997.858c-1.845 0-3.446 1.04-4.253 2.563.808 1.524 2.408 2.563 4.253 2.563 1.844 0 3.444-1.04 4.253-2.562C16.44 1.898 14.84.86 12.997.86z" fill="#000"/></mask></defs><path d="M12.997 1.61c-1.303 0-2.433.734-3.003 1.81.57 1.076 1.7 1.81 3.003 1.81 1.302 0 2.432-.733 3.003-1.81-.57-1.075-1.7-1.81-3.003-1.81zm0 3.397c-.877 0-1.588-.71-1.588-1.586 0-.876.71-1.587 1.586-1.587.877 0 1.588.71 1.588 1.588 0 .877-.71 1.587-1.588 1.587z" fill="#cb1800"/><g mask="url(#a)"><path d="M4.622 5.865H1.017V2.262H4.62v3.603h.002zM1.55 5.33h2.536V2.796H1.55V5.33zM4.622 9.803H1.017V6.2H4.62v3.603h.002zM1.55 9.268h2.536V6.73H1.55v2.538zM4.622 13.738H1.017v-3.604H4.62v3.604h.002zm-3.072-.534h2.536V10.67H1.55v2.534zM6.04 3.05h8.942V5.19h-8.94zM6.04 6.943h8.942v2.135h-8.94zM6.04 10.855h8.942v2.136h-8.94z"/><path d="M5.248 6.887l-.627-.63L3.1 7.78 2.3 6.983l-.625.625L3.1 9.033"/></g></svg>
